X:1
T:The Lawyer's Wife
M:4/4
L:1/8
K:F
 C2| F2F-G F2F-C| E2E-F G-A/2-G/2 FG| A2A-BA-G F2|A-B c2 z2| d2| c2c-B A2A-c|\
 B2 B2 D2 EF| C2F-AA-EE-G|G-F F4||
